images/streamr.svg

<svg height="250" viewBox="0 0 250 250" width="250" xmlns="http://www.w3.org/2000/svg"><path d="m250 125c0 69.035156-55.964844 125-125 125s-125-55.964844-125-125 55.964844-125 125-125 125 55.964844 125 125zm0 0" fill="#f7600a"/><path d="m146.914062 45.589844v-5.046875c0-1.730469-1.441406-3.121094-3.167968-3.039063-33.921875 1.609375-61.105469 28.945313-62.472656 62.921875.074218 2.128907 1.796874 2.6875 2.8125 2.6875h5.125c1.621093 0 2.949218-1.273437 3.035156-2.890625 1.453125-27.957031 23.882812-50.359375 51.851562-51.777344 2.132813-.273437 2.816406-1.4375 2.816406-2.855468zm-46.128906 57.523437h4.90625c1.589844 0 2.890625-1.242187 3.003906-2.828125 1.386719-18.992187 16.617188-34.140625 35.644532-35.402344.851562-.058593 2.574218-.695312 2.574218-2.898437v-4.992187c0-1.765626-1.496093-3.152344-3.257812-3.035157-24.613281 1.605469-44.296875 21.285157-45.90625 45.898438-.113281 1.761719 1.269531 3.257812 3.035156 3.257812zm65.179688 43.773438c1.015625 0 2.738281.558593 2.8125 2.6875-1.367188 33.976562-28.550782 61.3125-62.472656 62.921875-1.726563.082031-3.167969-1.308594-3.167969-3.039063v-5.046875c0-1.417968.683593-2.582031 2.816406-2.855468 27.96875-1.417969 50.398437-23.820313 51.851563-51.777344.085937-1.617188 1.414062-2.890625 3.035156-2.890625zm-16.699219 0c1.765625 0 3.148437 1.496093 3.035156 3.257812-1.605469 24.613281-21.292969 44.292969-45.910156 45.898438-1.757813.117187-3.253906-1.269531-3.253906-3.035157v-4.992187c0-2.203125 1.722656-2.839844 2.574219-2.898437 19.027343-1.261719 34.257812-16.410157 35.644531-35.402344.113281-1.589844 1.414062-2.828125 3.003906-2.828125zm-16.476563 0c1.785157 0 3.207032 1.535156 3.027344 3.308593-1.550781 15.496094-13.871094 27.820313-29.371094 29.367188-1.777343.179688-3.308593-1.242188-3.308593-3.027344v-5.015625c0-2.054687 1.78125-2.792969 2.648437-2.898437 9.957032-1.199219 17.855469-9.078125 19.082032-19.023438.191406-1.539062 1.472656-2.710937 3.023437-2.710937zm-87.199218-43.785157c1.417968 0 2.585937.683594 2.859375 2.816407 1.417969 27.960937 23.824219 50.390625 51.78125 51.84375 1.617187.085937 2.894531 1.414062 2.894531 3.035156v5.125c0 1.015625-.558594 2.738281-2.6875 2.808594-33.984375-1.367188-61.324219-28.546875-62.933594-62.460938-.082031-1.726562 1.308594-3.167969 3.039063-3.167969zm16.398437 0c2.203125 0 2.839844 1.722657 2.898438 2.574219 1.261719 19.023438 16.414062 34.253907 35.40625 35.636719 1.589843.117188 2.832031 1.414062 2.832031 3.007812v4.902344c0 1.765625-1.5 3.152344-3.257812 3.035156-24.617188-1.605468-44.304688-21.289062-45.910157-45.902343-.113281-1.757813 1.273438-3.253907 3.035157-3.253907zm87.574219-21.972656c33.984375 1.367188 61.324219 28.546875 62.933594 62.460938.082031 1.730468-1.308594 3.171875-3.039063 3.171875h-5.046875c-1.417968 0-2.585937-.683594-2.859375-2.816407-1.417969-27.964843-23.824219-50.390624-51.78125-51.847656-1.617187-.082031-2.894531-1.414062-2.894531-3.035156v-5.125c0-1.011719.558594-2.734375 2.6875-2.808594zm.570312 16.472656c24.617188 1.605469 44.304688 21.289063 45.910157 45.902344.113281 1.761719-1.273438 3.257813-3.035157 3.257813h-4.996093c-2.203125 0-2.839844-1.726563-2.898438-2.574219-1.261719-19.027344-16.414062-34.253906-35.40625-35.640625-1.589843-.117187-2.832031-1.414063-2.832031-3.003906v-4.90625c0-1.761719 1.5-3.148438 3.257812-3.035157zm.054688 16.480469c15.5 1.550781 27.820312 13.871094 29.371094 29.367188.179687 1.777343-1.242188 3.3125-3.027344 3.3125h-5.019531c-2.050781 0-2.789063-1.785157-2.894531-2.652344-1.203126-9.953125-9.082032-17.851563-19.03125-19.078125-1.539063-.191406-2.710938-1.472656-2.710938-3.023438v-4.894531c0-1.785156 1.535156-3.207031 3.3125-3.03125zm-71.699219-10.980469c2.050781 0 2.789063 1.78125 2.894531 2.648438 1.203126 9.953125 9.082032 17.851562 19.03125 19.078125 1.539063.191406 2.710938 1.472656 2.710938 3.023437v4.898438c0 1.785156-1.535156 3.207031-3.3125 3.027344-15.5-1.550782-27.820312-13.871094-29.371094-29.367188-.179687-1.777344 1.242188-3.308594 3.027344-3.308594zm68.425781-29.636718v5.015625c0 2.054687-1.78125 2.792969-2.648437 2.898437-9.957031 1.199219-17.855469 9.078125-19.082031 19.023438-.191406 1.539062-1.472656 2.710937-3.023438 2.710937h-4.898437c-1.785157 0-3.207031-1.535156-3.027344-3.308593 1.550781-15.496094 13.875-27.820313 29.371094-29.367188 1.777343-.179688 3.308593 1.242188 3.308593 3.027344zm0 0" fill="#fff" fill-rule="evenodd"/></svg>

<svg xmlns="http://www.w3.org/2000/svg" xmlns:xlink="http://www.w3.org/1999/xlink" width="250px" height="250px" viewBox="0 0 250 250" version="1.1">
<g id="surface1">
<path style=" stroke:none;fill-rule:nonzero;fill:rgb(96.862745%,37.64706%,3.921569%);fill-opacity:1;" d="M 250 125 C 250 194.035156 194.035156 250 125 250 C 55.964844 250 0 194.035156 0 125 C 0 55.964844 55.964844 0 125 0 C 194.035156 0 250 55.964844 250 125 Z M 250 125 "/>
<path style=" stroke:none;fill-rule:evenodd;fill:rgb(100%,100%,100%);fill-opacity:1;" d="M 146.914062 45.589844 L 146.914062 40.542969 C 146.914062 38.8125 145.472656 37.421875 143.746094 37.503906 C 109.824219 39.113281 82.640625 66.449219 81.273438 100.425781 C 81.347656 102.554688 83.070312 103.113281 84.085938 103.113281 L 89.210938 103.113281 C 90.832031 103.113281 92.160156 101.839844 92.246094 100.222656 C 93.699219 72.265625 116.128906 49.863281 144.097656 48.445312 C 146.230469 48.171875 146.914062 47.007812 146.914062 45.589844 Z M 100.785156 103.113281 L 105.691406 103.113281 C 107.28125 103.113281 108.582031 101.871094 108.695312 100.285156 C 110.082031 81.292969 125.3125 66.144531 144.339844 64.882812 C 145.191406 64.824219 146.914062 64.1875 146.914062 61.984375 L 146.914062 56.992188 C 146.914062 55.226562 145.417969 53.839844 143.65625 53.957031 C 119.042969 55.5625 99.359375 75.242188 97.75 99.855469 C 97.636719 101.617188 99.019531 103.113281 100.785156 103.113281 Z M 165.964844 146.886719 C 166.980469 146.886719 168.703125 147.445312 168.777344 149.574219 C 167.410156 183.550781 140.226562 210.886719 106.304688 212.496094 C 104.578125 212.578125 103.136719 211.1875 103.136719 209.457031 L 103.136719 204.410156 C 103.136719 202.992188 103.820312 201.828125 105.953125 201.554688 C 133.921875 200.136719 156.351562 177.734375 157.804688 149.777344 C 157.890625 148.160156 159.21875 146.886719 160.839844 146.886719 Z M 149.265625 146.886719 C 151.03125 146.886719 152.414062 148.382812 152.300781 150.144531 C 150.695312 174.757812 131.007812 194.4375 106.390625 196.042969 C 104.632812 196.160156 103.136719 194.773438 103.136719 193.007812 L 103.136719 188.015625 C 103.136719 185.8125 104.859375 185.175781 105.710938 185.117188 C 124.738281 183.855469 139.96875 168.707031 141.355469 149.714844 C 141.46875 148.125 142.769531 146.886719 144.359375 146.886719 Z M 132.789062 146.886719 C 134.574219 146.886719 135.996094 148.421875 135.816406 150.195312 C 134.265625 165.691406 121.945312 178.015625 106.445312 179.5625 C 104.667969 179.742188 103.136719 178.320312 103.136719 176.535156 L 103.136719 171.519531 C 103.136719 169.464844 104.917969 168.726562 105.785156 168.621094 C 115.742188 167.421875 123.640625 159.542969 124.867188 149.597656 C 125.058594 148.058594 126.339844 146.886719 127.890625 146.886719 Z M 45.589844 103.101562 C 47.007812 103.101562 48.175781 103.785156 48.449219 105.917969 C 49.867188 133.878906 72.273438 156.308594 100.230469 157.761719 C 101.847656 157.847656 103.125 159.175781 103.125 160.796875 L 103.125 165.921875 C 103.125 166.9375 102.566406 168.660156 100.4375 168.730469 C 66.453125 167.363281 39.113281 140.183594 37.503906 106.269531 C 37.421875 104.542969 38.8125 103.101562 40.542969 103.101562 Z M 61.988281 103.101562 C 64.191406 103.101562 64.828125 104.824219 64.886719 105.675781 C 66.148438 124.699219 81.300781 139.929688 100.292969 141.3125 C 101.882812 141.429688 103.125 142.726562 103.125 144.320312 L 103.125 149.222656 C 103.125 150.988281 101.625 152.375 99.867188 152.257812 C 75.25 150.652344 55.5625 130.96875 53.957031 106.355469 C 53.84375 104.597656 55.230469 103.101562 56.992188 103.101562 Z M 149.5625 81.128906 C 183.546875 82.496094 210.886719 109.675781 212.496094 143.589844 C 212.578125 145.320312 211.1875 146.761719 209.457031 146.761719 L 204.410156 146.761719 C 202.992188 146.761719 201.824219 146.078125 201.550781 143.945312 C 200.132812 115.980469 177.726562 93.554688 149.769531 92.097656 C 148.152344 92.015625 146.875 90.683594 146.875 89.0625 L 146.875 83.9375 C 146.875 82.925781 147.433594 81.203125 149.5625 81.128906 Z M 150.132812 97.601562 C 174.75 99.207031 194.4375 118.890625 196.042969 143.503906 C 196.15625 145.265625 194.769531 146.761719 193.007812 146.761719 L 188.011719 146.761719 C 185.808594 146.761719 185.171875 145.035156 185.113281 144.1875 C 183.851562 125.160156 168.699219 109.933594 149.707031 108.546875 C 148.117188 108.429688 146.875 107.132812 146.875 105.542969 L 146.875 100.636719 C 146.875 98.875 148.375 97.488281 150.132812 97.601562 Z M 150.1875 114.082031 C 165.6875 115.632812 178.007812 127.953125 179.558594 143.449219 C 179.738281 145.226562 178.316406 146.761719 176.53125 146.761719 L 171.511719 146.761719 C 169.460938 146.761719 168.722656 144.976562 168.617188 144.109375 C 167.414062 134.15625 159.535156 126.257812 149.585938 125.03125 C 148.046875 124.839844 146.875 123.558594 146.875 122.007812 L 146.875 117.113281 C 146.875 115.328125 148.410156 113.90625 150.1875 114.082031 Z M 78.488281 103.101562 C 80.539062 103.101562 81.277344 104.882812 81.382812 105.75 C 82.585938 115.703125 90.464844 123.601562 100.414062 124.828125 C 101.953125 125.019531 103.125 126.300781 103.125 127.851562 L 103.125 132.75 C 103.125 134.535156 101.589844 135.957031 99.8125 135.777344 C 84.3125 134.226562 71.992188 121.90625 70.441406 106.410156 C 70.261719 104.632812 71.683594 103.101562 73.46875 103.101562 Z M 146.914062 73.464844 L 146.914062 78.480469 C 146.914062 80.535156 145.132812 81.273438 144.265625 81.378906 C 134.308594 82.578125 126.410156 90.457031 125.183594 100.402344 C 124.992188 101.941406 123.710938 103.113281 122.160156 103.113281 L 117.261719 103.113281 C 115.476562 103.113281 114.054688 101.578125 114.234375 99.804688 C 115.785156 84.308594 128.109375 71.984375 143.605469 70.4375 C 145.382812 70.257812 146.914062 71.679688 146.914062 73.464844 Z M 146.914062 73.464844 "/>
</g>
</svg>
